packages/ui-icons/svg/Line/share.svg

<svg viewBox="0 0 1920 1920" version="1.1" xmlns="http://www.w3.org/2000/svg">
    <path d="M1478.49624,1318.49624 C1611.18797,1318.49624 1719.09774,1426.40602 1719.09774,1559.09774 C1719.09774,1691.78947 1611.18797,1799.69925 1478.49624,1799.69925 C1345.80451,1799.69925 1237.89474,1691.78947 1237.89474,1559.09774 C1237.89474,1538.04511 1241.50376,1517.95489 1246.55639,1498.46617 C1257.02256,1458.52632 1277.11278,1422.43609 1304.90226,1393.32331 C1348.69173,1347.48872 1410.16541,1318.49624 1478.49624,1318.49624 Z M440.902256,716.992481 C508.511278,716.992481 569.383459,745.142857 613.172932,790.135338 C641.203008,819.007519 661.293233,854.977444 672.120301,894.917293 C677.654135,915.007519 681.503759,935.699248 681.503759,957.593985 C681.503759,981.774436 676.81203,1004.87218 670.075188,1026.88722 C658.165414,1066.34586 637.112782,1101.83459 608.120301,1129.98496 C564.81203,1171.96992 505.984962,1198.19549 440.902256,1198.19549 C308.210526,1198.19549 200.300752,1090.28571 200.300752,957.593985 C200.300752,824.902256 308.210526,716.992481 440.902256,716.992481 Z M1478.49624,120.300752 C1611.18797,120.300752 1719.09774,228.210526 1719.09774,360.902256 C1719.09774,493.593985 1611.18797,601.503759 1478.49624,601.503759 C1411.00752,601.503759 1350.25564,573.473684 1306.58647,528.721805 C1278.43609,499.849624 1258.22556,463.879699 1247.3985,423.93985 C1241.86466,403.729323 1237.89474,382.917293 1237.89474,360.902256 C1237.89474,228.210526 1345.80451,120.300752 1478.49624,120.300752 Z M1478.49624,1198.19549 C1365.65414,1198.19549 1265.92481,1251.24812 1199.7594,1332.69173 L776.421053,1088.2406 C792.300752,1047.57895 801.804511,1003.78947 801.804511,957.593985 C801.804511,913.804511 792.781955,872.421053 778.466165,833.56391 L1201.44361,589.233083 C1267.72932,669.473684 1366.61654,721.804511 1478.49624,721.804511 C1677.47368,721.804511 1839.3985,559.879699 1839.3985,360.902256 C1839.3985,161.924812 1677.47368,0 1478.49624,0 C1279.5188,0 1117.59398,161.924812 1117.59398,360.902256 C1117.59398,404.81203 1126.61654,446.43609 1141.05263,485.293233 L718.195489,729.503759 C652.030075,649.142857 553.022556,596.691729 440.902256,596.691729 C241.924812,596.691729 80,758.616541 80,957.593985 C80,1156.57143 241.924812,1318.49624 440.902256,1318.49624 C550.496241,1318.49624 647.699248,1268.33083 713.864662,1190.97744 L1140.21053,1437.11278 C1126.37594,1475.48872 1117.59398,1516.15038 1117.59398,1559.09774 C1117.59398,1758.07519 1279.5188,1920 1478.49624,1920 C1677.47368,1920 1839.3985,1758.07519 1839.3985,1559.09774 C1839.3985,1360.1203 1677.47368,1198.19549 1478.49624,1198.19549" stroke="none" stroke-width="1" fill-rule="evenodd"/>
</svg>

<svg viewBox="0 0 1920 1920" version="1.1" xmlns="http://www.w3.org/2000/svg">
    <path d="M1478.496 1799.7c-132.691 0-240.601-107.91-240.601-240.602 0-21.053 3.609-41.143 8.661-60.632 10.467-39.94 30.557-76.03 58.346-105.143 43.79-45.834 105.263-74.827 173.594-74.827 132.692 0 240.602 107.91 240.602 240.602 0 132.691-107.91 240.601-240.602 240.601zM440.902 1198.194c-132.691 0-240.601-107.91-240.601-240.601 0-132.692 107.91-240.602 240.601-240.602 67.61 0 128.481 28.15 172.27 73.143 28.031 28.873 48.121 64.842 58.948 104.782 5.534 20.09 9.384 40.782 9.384 62.677 0 24.18-4.692 47.278-11.429 69.293-11.91 39.459-32.962 74.948-61.955 103.098-43.308 41.985-102.135 68.21-167.218 68.21zm796.993-837.293c0-132.691 107.91-240.601 240.601-240.601 132.692 0 240.602 107.91 240.602 240.601 0 132.692-107.91 240.602-240.602 240.602-67.488 0-128.24-28.03-171.91-72.782-28.15-28.872-48.36-64.842-59.188-104.782-5.533-20.21-9.503-41.023-9.503-63.038zm240.601 837.293c-112.842 0-212.571 53.053-278.737 134.497L776.421 1088.24c15.88-40.662 25.384-84.452 25.384-130.647 0-43.79-9.023-85.173-23.339-124.03l422.978-244.33c66.285 80.24 165.173 132.57 277.052 132.57 198.978 0 360.902-161.924 360.902-360.902C1839.399 161.925 1677.475 0 1478.496 0c-198.977 0-360.902 161.925-360.902 360.902 0 43.91 9.023 85.534 23.459 124.391l-422.858 244.21c-66.165-80.36-165.172-132.811-277.293-132.811C241.925 596.692 80 758.617 80 957.594c0 198.977 161.925 360.902 360.902 360.902 109.594 0 206.797-50.165 272.963-127.519l426.346 246.136c-13.835 38.376-22.617 79.037-22.617 121.985 0 198.977 161.925 360.902 360.902 360.902 198.978 0 360.902-161.925 360.902-360.902 0-198.978-161.924-360.903-360.902-360.903" stroke="none" stroke-width="1" fill-rule="evenodd"/>
</svg>
